!!!!SEGMENT: pl-wumfc--r244--005_paderewski-ignacy-jan--6-melodies-op-18-vocal-piece.krn
!!!cenid: 18xx:3135
!!!COM: Paderewski, Ignacy Jan
!!!COM-rismID: pe30029943
!!!CDT: 1860/11/18-1941/06/29
!!!CNT: Polish
!!!GTL: 6 Mélodies op. 18
!!!OTL: [Vocal piece]
!!!PDT:
!!!AGN:
!!!SMS-siglum: PL-Wumfc
!!!SMS-shelfmark: R244
!!!SMS-shelfwork: 005 G
!!!SMS-variant:
!!!SMS-altvar:
!!!NIFC-rismSourceID: 1001155722
!!!NIFC-rismChildID: 1001155728
!!!NIFC-islandoraID: pl-wumfc:155
!!!URL-pdf-islandora: https://repozytorium.nifc.pl/islandora/object/pl-wumfc%3A155/datastream/PDF/view
!!!URL-scan: https://polish.musicsources.pl/pl/lokalizacje/galeria/rekopisy/4664 @EN{Scan on Polish Music Sources Website} @PL{Skany w portalu Dziedzictwo Muzyki Polskiej w otwartym dostępie}
!!!ONB-nifc: Nr V
!!!AIN: 1 piano 1 vox
!!!key: b
!!!filter-modern: sic -sq | shed -e "s/TX(.*):t=P:/tx$1:t=P:/LG" | shed -e "s/yy//" | shed -e "s/^(\d+[\/\\]right)/$1yy/I;s/^(\d+[\/\\]left)/$1yy/I" | shed -e "s/:rj/:RJ/L" | shed -k -e "s/([^a-gA-Gn#X-])[<>]/$1/g" | shed -e "s/LO:DY:(a|b|rj)/LO:dy:$1/L" | shed -e "s/-//B" | autostem -r | modori -m |  humtr -p
**kern	**kern	**dynam	**kern	**dynam
*part2	*part2	*part2	*part1	*part1
*staff3	*staff2	*	*staff1	*
*I"[Pianoforte]	*I"[Pianoforte]	*	*I"[Voce]	*
*I'	*I'	*	*I'	*
*Ipiano	*Ipiano	*	*Ivox	*
*ICklav	*ICklav	*	*ICvox	*
*IGacmp	*IGacmp	*	*IGsolo	*
*mI"Pianoforte	*mI"Pianoforte	*	*mI"Voce	*
*mI'pf	*mI'pf	*	*mI'V	*
*clefF4	*clefG2	*	*clefG2	*
*k[f#c#]	*k[f#c#]	*	*k[f#c#]	*
*b:	*b:	*	*b:	*
*M3/4	*M3/4	*	*M3/4	*
=1	=1	=1	=1	=1
!!LO:TX:t=P:problem:all\right or left:global
4BB\ 4F#	4b\ 4dd 4ff#	.	2.r	.
.	(16qqee/LL	.	.	.
.	16qqff#/JJ)	.	.	.
4B\ 4c# 4e 4g	8cc#\L 8ee	.	.	.
.	8b\J 8dd	.	.	.
4B\ 4c# 4e 4g	4cc#\ 4ee	.	.	.
=2	=2	=2	=2	=2
4BB\ 4F#	4b\ 4dd 4ff#	.	2.r	.
.	(16qqee/LL	.	.	.
.	16qqff#/JJ)	.	.	.
4B\ 4c# 4e 4g	8cc#\L 8ee	.	.	.
.	8b\J 8dd	.	.	.
4B\ 4c# 4e 4g	4cc#\ 4ee	.	.	.
=3	=3	=3	=3	=3
4BB\ 4F#	8dd\L 8ff#	.	2.r	.
.	8cc#\J 8ee	.	.	.
4B\ 4d 4f#	4b\ 4dd	.	.	.
4B\ 4d	4dd\ 4ff#	.	.	.
=4	=4	=4	=4	=4
4FF#\	16a/KL 16cc#	.	2.r	.
.	[8.f#/J [8.a	.	.	.
4F#\ 4A 4c#	2f#/] 2a]	.	.	.
4E\ 4A	.	.	.	.
=5	=5	=5	=5	=5
4GG\ 4D	4b/ 4dd	.	2.r	.
.	(16qqcc#/LL	.	.	.
.	16qqdd/JJ)	.	.	.
4E\ 4A 4c#	8a/L 8cc#	.	.	.
.	8g/J 8b	.	.	.
4E\ 4A 4c#	4a\ 4cc#	.	.	.
=6	=6	=6	=6	=6
4GG\ 4D	4b/ 4dd	.	2.r	.
.	(16qqcc#/LL	.	.	.
.	16qqdd/JJ)	.	.	.
4E\ 4A 4c#	8a/L 8cc#	.	.	.
.	8g/J 8b	.	.	.
4E\ 4A 4c#	4a/ 4cc#	.	.	.
!!LO:LB:g=original
=7	=7	=7	=7	=7
4EE\	8b\L 8dd	.	2.r	.
.	8a\J 8cc#	.	.	.
4E\ 4c#	4g/ 4b	.	.	.
4E\ 4c#	4f#/ 4a#X	.	.	.
=8	=8	=8	=8	=8
4BBB\	16dd/KL	.	2.r	.
.	[<8.d/J [>8.f# [>8.b	.	.	.
*2\right	*	*	*	*
2B^\	2d/] 2f#] 2b]	.	.	.
=9	=9	=9	=9	=9
!	!	!	!LO:TX:t=P:problem=brak tekstu	!
4BB\	4r	.	4.b/	.
4F#\ 4B 4d	4f#/ 4b 4dd	.	.	.
.	.	.	8cc#\	.
4E\ 4B 4c#	4g/ 4b 4cc# 4gg	.	8dd\	.
.	.	.	8ee\	.
=10	=10	=10	=10	=10
4BB\	4r	.	8dd\	.
.	.	.	8cc#\	.
4F#\ 4B 4d	4f#/ 4b 4dd	.	4b\	.
4D\ 4F# 4B	4f#/ 4b 4ff#	.	4dd\	.
=11	=11	=11	=11	=11
4FF#\	4r	.	16cc#\	.
!	!	!	!LO:MO:mod=[8.a	!
.	.	.	[8a/L	.
!	!	!	!LO:MO:null:mod=.	!
.	.	.	16a/Jk_	.
4F#\ 4A 4c#	4f#/ 4a 4cc#	.	4a/]	.
4F#\ 4A	4f#/ 4cc# 4ff#	.	4r	.
=12	=12	=12	=12	=12
4BB\	4r	.	4.b/	.
4E\ 4B 4d	4f#/ 4b 4dd	.	.	.
.	.	.	8cc#\	.
4E\ 4B 4c#	4g/ 4b 4cc# 4gg	.	8dd\	.
.	.	.	8ee\	.
!!LO:LB:g=original
=13	=13	=13	=13	=13
4BB\	4r	.	8dd\	.
.	.	.	8cc#\	.
4F#\ 4B 4d	4f#/ 4b 4dd	.	4b\	.
4D\ 4F# 4B	4f#/ 4b 4ff#	.	4dd\	.
=14	=14	=14	=14	=14
4FF#\	4r	.	16cc#\	.
!	!	!	!LO:MO:mod=[8.a	!
.	.	.	[8a/L	.
!	!	!	!LO:MO:null:mod=.	!
.	.	.	16a/Jk_	.
4F#\ 4A 4c#	4f#/ 4a 4cc#	.	4a/]	.
4F#\ 4A	4f#/ 4cc# 4ff#	.	4r	.
=15	=15	=15	=15	=15
4GG\ 4D	4r	.	4.g/	.
4G\ 4B	4d/ 4g 4b	.	.	.
.	.	.	8a/	.
4D\ 4B	4d/ 4g 4dd	.	8b/	.
.	.	.	8dd\	.
=16	=16	=16	=16	=16
4GG\ 4E	4r	.	8cc#\	.
.	.	.	8b\	.
4A\ 4c#	4e/ 4g 4a	.	4a/	.
4E\ 4A	4e/ 4g 4cc#	.	4cc#\	.
=17	=17	=17	=17	=17
4GG\ 4D	4r	.	2dd\	.
4G\ 4B	4d/ 4g 4b	.	.	.
4D\ 4B	4d/ 4g 4dd	.	4b\	.
=18	=18	=18	=18	=18
4GG\	4r	.	4.g/	.
4D\ 4G 4B	4d/ 4g 4b	.	.	.
.	.	.	8a/	.
4FF#\	4d/ 4g 4b 4dd	.	8b/	.
.	.	.	8dd\	.
!!LO:LB:g=original
=19	=19	=19	=19	=19
4EE\ 4E	4c#/ 4g 4b 4cc#	.	8cc#\	.
.	.	.	8b\	.
*2\left	*	*	*	*
!	!LO:SIC:v:n=4:s=2A#/	!	!	!
2FF#\ 2F#	2A/ 2e 2f# 2a#X	.	4a#X/	.
.	.	.	4cc#\	.
=20	=20	=20	=20	=20
4BBB\	2B/ 2d 2f# 2b	.	16dd\	.
!	!	!	!LO:MO:mod=[8.b	!
.	.	.	[8b/L	.
!	!	!	!LO:MO:null:mod=.	!
.	.	.	16b/Jk_	.
4BB\	.	.	4b/]	.
4AA\	4r	.	4r	.
=21	=21	=21	=21	=21
4GG\	4r	.	4.g/	.
4D\ 4G 4B	4d/ 4g 4b	.	.	.
.	.	.	8a/	.
4FF#\	4d/ 4g 4b 4dd	.	8b/	.
.	.	.	8dd\	.
=22	=22	=22	=22	=22
4EE\ 4E	4c#/ 4g 4b 4cc#	.	8cc#\	.
.	.	.	8b\	.
!	!LO:SIC:v:n=4:s=2A#/	!	!	!
2FF#\ 2F#	2A/ 2e 2f# 2a#X	.	4a#X/	.
.	.	.	4ff#\	.
=23	=23	=23	=23	=23
4BBB\	2B/ 2d 2f# 2b	.	16dd\	.
!	!	!	!LO:MO:mod=[8.b	!
.	.	.	[4b	.
!	!	!	!LO:MO:null:mod=4b]	!
4F#\	.	.	.	.
!	!	!	!LO:MO:null:mod=.	!
.	.	.	8.b/]	.
4B\	4r	.	4r	.
=24	=24	=24	=24	=24
4BB\ 4F#	4b/ 4dd 4ff#	.	2.r	.
.	16qqee/LL	.	.	.
.	16qqff#/JJ	.	.	.
4B\ 4c# 4e 4g	8cc#\L 8ee	.	.	.
.	8b\J 8dd	.	.	.
4B\ 4c# 4e 4g	4cc#\ 4ee	.	.	.
!!LO:PB:g=original
=25	=25	=25	=25	=25
4BB\ 4F#	4b\ 4dd 4ff#	.	2.ryy	.
.	(16qqcc#/LL 16qqee	.	.	.
.	16qqee/JJ	.	.	.
4B\ 4c# 4e 4g	8cc#\L) 8ee	.	.	.
.	8b\J 8dd	.	.	.
4B\ 4c# 4e 4g	4cc#\ 4ee	.	.	.
=26	=26	=26	=26	=26
4BB\ 4F#	8dd\L 8ff#	.	2.ryy	.
.	8cc#\J 8ee	.	.	.
4B\ 4d 4f#	4b\ 4dd	.	.	.
4B\ 4d	4dd\ 4ff#	.	.	.
=27	=27	=27	=27	=27
4FF#\	16a/KL 16cc#	.	2.ryy	.
.	[8.f#/J [8.a	.	.	.
4F#\ 4A 4c#	2f#/] 2a]	.	.	.
4F#\ 4A	.	.	.	.
=28	=28	=28	=28	=28
4GG\ 4D	4b/ 4dd	.	2.ryy	.
.	(16qqa/LL 16qqcc#	.	.	.
.	16qqdd/JJ	.	.	.
4E\ 4A 4c#	8a/L) 8cc#	.	.	.
.	8g/J 8b	.	.	.
4E\ 4A 4c#	4a/ 4cc#	.	.	.
=29	=29	=29	=29	=29
4GG\ 4D	4b/ 4dd	.	2.ryy	.
.	(16qqa/LL 16qqcc#	.	.	.
.	16qqcc#/JJ	.	.	.
4E\ 4A 4c#	8a/L) 8cc#	.	.	.
.	8g/J 8b	.	.	.
4E\ 4A 4c#	4a/ 4cc#	.	.	.
=30	=30	=30	=30	=30
4EE\	8b/L 8dd	.	2.ryy	.
.	8a/J 8cc#	.	.	.
4E\ 4c#	4g/ 4b	.	.	.
4E\ 4c#	4f#/ 4a#X	.	.	.
!!LO:LB:g=original
=31	=31	=31	=31	=31
4FFF#\	16cc#/KL	.	2.ryy	.
.	[8.f#/J	.	.	.
*2\right	*	*	*	*
2F#\	2f#/]	.	.	.
=32	=32	=32	=32	=32
4FF#\	16cc#/KL	.	2.ryy	.
.	[8.f#/J	.	.	.
*2\left	*	*	*	*
2F#\	2f#/]	.	.	.
=33	=33	=33	=33	=33
*^	*	*	*	*
2.FF#\	4ryyyy	16cc#/KL	.	2.r	.
.	.	8.f#/J	.	.	.
.	2F#/ 2f#>	4f#\	.	.	.
.	.	4e#X/	.	.	.
*v	*v	*	*	*	*
=34	=34	=34	=34	=34
2.FFF#\ 2.FF#	4F#</ 4en 4f#	.	2.r	.
.	4F#</ 4d#X 4f#	.	.	.
.	4F#</ 4c# 4e	.	.	.
=35||	=35||	=35||	=35||	=35||
*k[f#c#g#d#a#]	*k[f#c#g#d#a#]	*	*k[f#c#g#d#a#]	*
[2.BBB\ [2.FF#	2.F#</ 2.d# 2.f#	.	4r	.
.	.	.	4f#/	.
.	.	.	4b/	.
=36	=36	=36	=36	=36
*	*^	*	*	*
2.BBB\] 2.FF#]	2.F#</ 2.f#	2e\	.	4.cc#\	.
.	.	.	.	8dd#\	.
.	.	4c#\	.	4ee\	.
!!LO:LB:g=original
=37	=37	=37	=37	=37	=37
*^	*	*	*	*	*
!	!	!	!LO:TX:b:t=ré:rj:mod=	!	!	!
2.F#/	2.BBB\ 2.FF#	2.f#/	2d#\	.	8dd#\	.
.	.	.	.	.	8cc#\	.
.	.	.	.	.	4b\	.
.	.	.	4B\	.	4dd#\	.
*v	*v	*	*	*	*	*
*	*v	*v	*	*	*
=38	=38	=38	=38	=38
2.BBB\ 2.FF#	(4E/ 4A# 4c# 4f#	.	[4ff#\	.
.	4B/ 4d# 4g#	<	8ff#\L]	.
.	.	.	8ee\	.
!	!LO:SIC:v:s=4c#/ 4e 4a#	!	!	!
.	4c#/ 4e 4g#	.	8dd#\	.
.	.	.	8cc#\J	.
=39	=39	=39	=39	=39
[<2.FF#\	4d#/ 4f# 4b	.	[4ff#\	.
.	4e/ 4g# 4cc#	.	8ff#\L]	.
!	!	!	!	!LO:HP:a
.	.	.	8ee\	>
.	4f#/ 4a# 4dd#	.	8dd#\	.
.	.	.	8cc#\J	.
=40	=40	=40	=40	=40
2.FF#\] [<2.F#	4g#\ 4b 4ee	.	[2.ff#\	.
.	4a#\ 4cc# 4ff#	.	.	.
.	4b\ 4dd# 4gg#	[[	.	.
=41	=41	=41	=41	=41
2.F#^\] 2.f#	4b#X\ 4dd# 4gg##X	.	2ff#\]	.
.	2cc#\) 2ee 2aa#	.	.	]
.	.	.	4f#/	.
=42	=42	=42	=42	=42
[2.BBB\ [2.FF#	2.F#</ 2.d# 2.f#	.	4r	.
.	.	.	4f#/	.
.	.	.	4b\	.
!!LO:LB:g=original
=43	=43	=43	=43	=43
*	*^	*	*	*
2.BBB\] 2.FF#]	2.F#</ 2.f#	2e\	.	4.cc#\	.
.	.	.	.	8dd#\	.
.	.	4c#\	.	4ee\	.
=44	=44	=44	=44	=44	=44
!	!	!LO:TX:b:t=ré:mod=	!	!	!
2.BBB\ 2.FF#	2.F#</ 2.f#	2d#\	.	8dd#\	.
.	.	.	.	8cc#\	.
.	.	.	.	4b\	.
.	.	4B\	.	4dd#\	.
*	*v	*v	*	*	*
=45	=45	=45	=45	=45
2.BBB\ 2.FF#	(4F#</ 4A#< 4c# 4f#	.	[4ff#\	.
.	4B/ 4d# 4g#	<	8ff#\L]	.
.	.	.	8ee\	.
!	!	!	!	!LO:HP:a
.	4c#/ 4e 4a#	.	8dd#\	>
.	.	.	8cc#\J	.
=46	=46	=46	=46	=46
[<2.FF#\	4d#/ 4f# 4b	.	[4ff#\	.
.	4e/ 4g# 4cc#	.	8ff#\L]	.
.	.	.	8ee\	.
.	4f#/ 4a# 4dd#	.	8dd#\	.
.	.	.	8cc#\J	.
=47	=47	=47	=47	=47
2.FF#\] [<2.F#	4g#\ 4b 4ee	.	[2.ff#\	.
.	4a#\ 4cc# 4ff#	.	.	]
.	4b\ 4dd# 4gg#	[	.	.
=48	=48	=48	=48	=48
!	!	!	!LO:TX:a:t=rit	!
2.F#\] 2.f#	4b#X\ 4dd# 4gg##X	.	2ff#\]	.
!	!LO:TX:b:t=rit	!	!	!
.	2cc#\) 2ee 2aa#	.	.	.
.	.	.	4f#/	.
!!LO:PB:g=original
!LO:MO:mod==49||	!LO:MO:mod==49||	!LO:MO:mod==49||	!LO:MO:mod==49||	!LO:MO:mod==49||
=49	=49	=49	=49	=49
*ok[f#c#gndnan]	*ok[f#c#gndnan]	*	*ok[f#c#gndnan]	*
*k[f#c#]	*k[f#c#]	*	*k[f#c#]	*
4BB\	4r	.	4.b/	.
!LO:SIC:v:s=4F#\ 4B 4d	!	!	!	!
4F#\ 4A 4d	4f#/ 4b 4dd	.	.	.
.	.	.	8cc#\	.
4E\ 4B 4c#	4g/ 4b 4cc# 4gg	.	8dd\	.
.	.	.	8ee\	.
=50	=50	=50	=50	=50
4BB\	4r	.	8dd\	.
.	.	.	8cc#\	.
4F#\ 4B 4d	4f#/ 4b 4dd	.	4b\	.
4D\ 4F# 4B	4f#/ 4b 4ff#	.	4dd\	.
=51	=51	=51	=51	=51
4FF#\	4r	.	16cc#/	.
!	!	!	!LO:MO:mod=[8.a	!
.	.	.	[4a/	.
!	!	!	!LO:MO:null:mod=4a]	!
4F#\ 4A 4c#	4f#/ 4a 4cc#	.	.	.
!	!	!	!LO:MO:null:mod=.	!
.	.	.	8.a/]	.
4C#\ 4F# 4A	4f#/ 4cc# 4ff#	.	4r	.
=52	=52	=52	=52	=52
4GG\	4r	.	4.g/	.
4D\ 4G 4B	4d/ 4g 4b	.	.	.
.	.	.	8a/	.
4FF#\	4d/ 4g 4b 4dd	.	8b/	.
.	.	.	8dd\	.
=53	=53	=53	=53	=53
4EE\ 4E	4c#/ 4g 4b 4cc#	.	8cc#\	.
.	.	.	8b\	.
2FF#\ 2C# 2F#	2A#X/ 2e 2f# 2a#X	.	4a#X/	.
.	.	.	4cc#\	.
=54	=54	=54	=54	=54
4BBB\	2B/ 2d 2f# 2b	.	16dd\	.
!	!	!	!LO:MO:mod=[8.b	!
.	.	.	[4b/	.
!	!	!	!LO:MO:null:mod=4b]	!
4BB\	.	.	.	.
!	!	!	!LO:MO:null:mod=.	!
.	.	.	8.b/]	.
4AA\	4r	.	4r	.
!!LO:LB:g=original
=55	=55	=55	=55	=55
4GG\	4r	.	4.g/	.
4D\ 4G 4B	4d/ 4g 4b	.	.	.
.	.	.	8a/	.
4FF#\	4d/ 4g 4b 4dd	.	8b/	.
.	.	.	8dd\	.
=56	=56	=56	=56	=56
4EE\ 4E	4c#/ 4g 4b 4cc#	.	8cc#\	.
.	.	.	8b\	.
2FF#\ 2C# 2F#	2A#X/ 2e 2f# 2a#X	.	4a#X/	.
!	!	!	!LO:MO:mod=!null:null	!
!	!	!	!LO:N:vis=8	!
.	.	.	4ff#\	.
=57	=57	=57	=57	=57
!LO:TX:b:t=si:mod=	!	!	!	!
4BBB\	2B/ 2d 2f# 2b	.	16dd\	.
!	!	!	!LO:MO:mod=[8.b	!
.	.	.	[4b/	.
!	!	!	!LO:MO:null:mod=4b]	!
4F#\	.	.	.	.
!	!	!	!LO:MO:null:mod=.	!
.	.	.	8.b/]	.
4B\	4r	.	4r	.
=58	=58	=58	=58	=58
4BB\ 4F#	4b\ 4dd 4ff#	.	2.r	.
.	(>16qqee/LL	.	.	.
.	16qqff#/JJ	.	.	.
4B\ 4c# 4e 4g	8cc#\L) 8ee	.	.	.
.	8b\J 8dd	.	.	.
4B\ 4c# 4e 4g	4cc#\ 4ee	.	.	.
=59	=59	=59	=59	=59
4BB\ 4F#	4b\ 4dd 4ff#	.	2.r	.
.	(16qqee/LL	.	.	.
.	16qqff#/JJ	.	.	.
4B\ 4c# 4e 4g	8cc#\L) 8ee	.	.	.
.	8b\J 8dd	.	.	.
4B\ 4c# 4e 4g	4cc#\ 4ee	.	.	.
=60	=60	=60	=60	=60
4BB\ 4F#	8dd\L 8ff#	.	2.r	.
.	8cc#\J 8ee	.	.	.
4B\ 4d 4f#	4b\ 4dd	.	.	.
[<4E:\ [>4B: [>4g:	[<4b:\ [>4cc#: [>4bb:	.	.	.
!!LO:LB:g=original
=61	=61	=61	=61	=61
2.E:\] 2.B:] 2.g:]	2.b\] 2.cc#] 2.bb]	.	2.r	.
=62	=62	=62	=62	=62
*ped	*	*	*	*
2.BBB\	(16ff#/KL	.	2.r	.
.	[8.f#/J) [8.dd#X	.	.	.
.	2f#/_ 2dd#_	.	.	.
=63	=63	=63	=63	=63
2.F#;\ 2.d#X	2.f#;/] 2.dd#]	.	2.r	.
*Xped	*	*	*	*
==	==	==	==	==
*-	*-	*-	*-	*-
!!!system-decoration: s1{(s2,s3)}
!!!RDF**kern: < = below
!!!RDF**kern: > = above
!!!ENC: Berenika Jozajtis
!!!END: 2021-11-08
!!!ENC: Marta Chmielewska
!!!END: 2021-11-09
!!!ENC-modern: Andrzej Borzym
!!!END-modern: 2022-08-28!!!YEC: Copyright 2022 Narodowy Instytut Fryderyka Chopina (https://polishscores.org)
!!!YEM: License CC-BY-4.0 (https://creativecommons.org/licenses/by/4.0)
